X:1
T:Old Blue
M:4/4
L:1/8
K:C
 z2 EE E C/2C/2 EE| G8| z2 EE E C/2C/2 DD| C8| z2 EE E C/2C/2 EE| G8|\
 z2 E3.99999962500005/5.99999925000009 E3.99999962500005/5.99999925000009 E3.99999962500005/5.99999925000009 E/2E/2 C/2C/2 DD|\
 C8| G8| E8-| E4- C3 C| D D3- D- C2 C-| C8|
